app/assets/images/heroicons/micro/pencil-square.svg

<svg width="16" height="16" viewBox="0 0 16 16" fill="none" xmlns="http://www.w3.org/2000/svg">
<path d="M13.4875 2.51256C12.804 1.82915 11.696 1.82915 11.0126 2.51256L6.75098 6.77417C6.49563 7.02951 6.29308 7.33265 6.15488 7.66628L5.30712 9.71282C5.19103 9.99307 5.25519 10.3157 5.46968 10.5302C5.68417 10.7447 6.00676 10.8088 6.28702 10.6928L8.33382 9.84501C8.66748 9.70681 8.97066 9.50423 9.22604 9.24886L13.4875 4.98744C14.1709 4.30402 14.1709 3.19598 13.4875 2.51256Z" fill="#0F172A"/>
<path d="M4.75 3.5C4.05964 3.5 3.5 4.05964 3.5 4.75V11.25C3.5 11.9404 4.05964 12.5 4.75 12.5H11.25C11.9404 12.5 12.5 11.9404 12.5 11.25V9C12.5 8.58579 12.8358 8.25 13.25 8.25C13.6642 8.25 14 8.58579 14 9V11.25C14 12.7688 12.7688 14 11.25 14H4.75C3.23122 14 2 12.7688 2 11.25V4.75C2 3.23122 3.23122 2 4.75 2H7C7.41421 2 7.75 2.33579 7.75 2.75C7.75 3.16421 7.41421 3.5 7 3.5H4.75Z" fill="#0F172A"/>
</svg>

<svg xmlns="http://www.w3.org/2000/svg" viewBox="0 0 16 16" fill="currentColor" aria-hidden="true" data-slot="icon">
  <path d="M13.488 2.513a1.75 1.75 0 0 0-2.475 0L6.75 6.774a2.75 2.75 0 0 0-.596.892l-.848 2.047a.75.75 0 0 0 .98.98l2.047-.848a2.75 2.75 0 0 0 .892-.596l4.261-4.262a1.75 1.75 0 0 0 0-2.474Z"/>
  <path d="M4.75 3.5c-.69 0-1.25.56-1.25 1.25v6.5c0 .69.56 1.25 1.25 1.25h6.5c.69 0 1.25-.56 1.25-1.25V9A.75.75 0 0 1 14 9v2.25A2.75 2.75 0 0 1 11.25 14h-6.5A2.75 2.75 0 0 1 2 11.25v-6.5A2.75 2.75 0 0 1 4.75 2H7a.75.75 0 0 1 0 1.5H4.75Z"/>
</svg>
